X:1
T:Brightest and Best of the Stars
T:Text: Reginald Heber (1783-1826) Tune: Jame P. Harding (1850-1911); adapt. The Church Hymnal, 1984
T:11 10 11 10 MORNING STAR www.hymnary.org/text/brightest_and_best_of_the_sons_of_the_mo
T:Brightest and Best of the Stars
T:This hymn is in the public domain.  You may freely use this score for personal and congregational worship.  If you reproduce the score, please credit Hymnary.org as the source. 
T:This hymn is in the public domain.  You may freely use this score for personal and congregational worship.  If you reproduce the score, please credit Hymnary.org as the source. 
Z:This hymn is in the public domain.  You may freely use this score for personal and congregational worship.  If you reproduce the score, please credit Hymnary.org as the source.
%%score ( 1 2 ) ( 3 4 )
L:1/8
M:4/4
K:G
V:1 treble nm="Piano" snm="Pno."
V:2 treble 
V:3 bass nm="Piano" snm="Pno."
V:4 bass 
V:1
 [B,B]4 [B,A]2 [B,G]2 | [CF]4 [CE]2 D2 | (D2 G2) [^CF]2 [CG]2 | [DB]4 [DA]4 | [Dd]4 [Dc]2 [DB]2 | %5
w: 3~Vain- ly we|of- fer each|la- * vish o-|bla- tion,|vain- ly with|
w: 1~Bright- est and|best of the|sons _ of the|mor- ning,|dawn on our|
w: 2~What shall we|give him, in|cost- * ly de-|vo- tion?|Shall we bring|
 [DB]4 [DA]2 [DG]2 | (F2 A2) [^CG]2 [CE]2 | D8 | [B,B]4 [B,A]2 [B,G]2 | [CF]4 [CE]2 D2 | %10
w: gifts would his|fa- * vor se-|cure;|ri- cher by|far is the|
w: dark- ness and|come _ to our|aid;|star of the|east, the ho-|
w: in- cense and|of- * ferings di-|vine,|gems of the|moun- tain and|
 (D2 G2) [GB]2 [Fd]2 | [Ed]4 [Ec]4 | [DB]4 [B,G]2 [EA]2 | [^DB]4 [B,G]2 [^A,E]2 | %14
w: heart’s _ a- do-|ra- tion,|dea- rer to|God are the|
w: ri- * zon a-|dor- ning,|guide where our|in- fant Re-|
w: pearls _ of the|o- cean,|myrrh from the|for- est or|
 (D2 E2) [CF]2 [CA]2 | [B,G]8 |] %16
w: prayers _ of the|poor.|
w: dee- * mer is|laid.|
w: gold _ from the|mine?|
V:2
 x8 | x6 C2 | D4 x4 | x8 | x8 | x8 | D4 x4 | (D4 =C4) | x8 | x6 C2 | D4 x4 | x8 | x8 | x8 | %14
 B,4 x4 | x8 |] %16
V:3
 [G,,D,]4 [G,,D,]2 [G,,D,]2 | [A,,D,]4 [A,,E,]2 [A,,F,]2 | [B,,G,]4 [E,G,]2 [E,G,]2 | [D,G,]4 F,4 | %4
 [B,,G,]4 [A,,F,]2 [G,,G,]2 | G,4 [F,A,]2 [E,B,]2 | (A,2 F,2) [A,,E,]2 [A,,G,]2 | [D,F,]8 | %8
 [G,,D,]4 [G,,D,]2 [G,,D,]2 | [A,,D,]4 [A,,E,]2 [A,,F,]2 | [B,,G,]4 [B,,G,]2 [B,,G,]2 | %11
 [C,G,]4 [C,G,]4 | [D,G,]4 [E,G,]2 [C,E,]2 | [B,,F,]4 [E,G,]2 [^C,G,]2 | [D,G,]4 [D,A,]2 [D,F,]2 | %15
 [G,,G,]8 |] %16
V:4
 x8 | x8 | x8 | x4 (D,2 C,2) | x8 | G,4 x4 | A,,4 x4 | x8 | x8 | x8 | x8 | x8 | x8 | x8 | x8 | %15
 x8 |] %16

